src/images/std-icons/std-mic.svg

<svg xmlns="http://www.w3.org/2000/svg" width="512" height="512" viewBox="0 0 512 512">
  <title>mic</title>
  <path fill="#000" fill-rule="nonzero" d="M383.996373,234.673276 C378.337415,234.669995 372.909289,236.916553 368.907801,240.918041 C364.906313,244.919529 362.659755,250.347655 362.66304,256.006613 C362.66304,314.916987 314.906747,362.673276 255.996373,362.673276 C197.086,362.673276 149.329707,314.916987 149.329707,256.006613 C149.329707,244.224539 139.778448,234.673276 127.996373,234.673276 C116.214299,234.673276 106.66304,244.224539 106.66304,256.006613 C106.66304,338.481135 173.521852,405.339944 255.996373,405.339944 C338.470895,405.339944 405.32971,338.481135 405.32971,256.006613 C405.332992,250.347655 403.086434,244.919529 399.084946,240.918041 C395.083457,236.916553 389.655332,234.669995 383.996373,234.673276 Z"/>
  <path fill="#000" fill-rule="nonzero" d="M256.001707 320.006613C272.974219 320.006613 289.251611 313.264458 301.25297 301.263059 313.254329 289.26166 319.99648 272.984246 319.99648 256.011733L319.99648 128.00256C320.038168 105.111369 307.84986 83.9411323 288.032444 72.4834548 268.215028 61.0257773 243.786892 61.0257773 223.969476 72.4834548 204.15206 83.9411323 191.963752 105.111369 192.00544 128.00256L192.00544 256.011733C192.00544 272.984401 198.748245 289.261844 210.749853 301.263212 222.751461 313.26458 239.029039 320.006613 256.001707 320.006613L256.001707 320.006613zM319.996373 426.67328L191.996373 426.67328C180.214299 426.67328 170.66304 436.224539 170.66304 448.006613 170.66304 459.788688 180.214299 469.339947 191.996373 469.339947L319.996373 469.339947C331.778448 469.339947 341.329707 459.788688 341.329707 448.006613 341.329707 436.224539 331.778448 426.67328 319.996373 426.67328z"/>
</svg>

<svg xmlns="http://www.w3.org/2000/svg" viewBox="0 0 512 512">
  <title>
    mic
  </title>
  <path d="M384 234.67a21.32 21.32 0 0 0-21.34 21.34c0 58.9-47.75 106.66-106.66 106.66s-106.67-47.75-106.67-106.66a21.33 21.33 0 0 0-42.67 0c0 82.47 66.86 149.33 149.34 149.33 82.47 0 149.33-66.86 149.33-149.33A21.32 21.32 0 0 0 384 234.67z"/>
  <path d="M256 320a64 64 0 0 0 64-63.99v-128a64 64 0 1 0-128 0v128a64 64 0 0 0 64 64zm64 106.67H192a21.33 21.33 0 0 0 0 42.67h128a21.33 21.33 0 0 0 0-42.67z"/>
</svg>
